{ "compressionlevel":-1,
 "height":3,
 "infinite":false,
 "layers":[
        {
         "data":[1, 2, 2, 2, 3,
            4, 5, 5, 5, 6,
            7, 8, 8, 8, 9],
         "height":3,
         "id":1,
         "name":"Tile Layer 1",
         "opacity":1,
         "type":"tilelayer",
         "visible":true,
         "width":5,
         "x":0,
         "y":0
        }],
 "nextlayerid":2,
 "nextobjectid":1,
 "orientation":"orthogonal",
 "renderorder":"right-down",
 "tiledversion":"1.11.2",
 "tileheight":32,
 "tilesets":[
        {
         "columns":9,
         "firstgid":1,
         "image":"..\/tiles\/frame.png",
         "imageheight":32,
         "imagewidth":288,
         "margin":0,
         "name":"frame",
         "spacing":0,
         "tilecount":9,
         "tileheight":32,
         "tilewidth":32
        }],
 "tilewidth":32,
 "type":"map",
 "version":"1.10",
 "width":5
}